X:2
T:C'est la Vie (second)
C:Lincoln Hilton
R:Slow Air
M:2/4
L:1/4
K:D
Z:Transcribed by Stephen Beitzel
[| {g}A {Gdc}d/{gf}g/ | {g}f a/{ef}e/- | e- e- | e {g}d/e/ |
{gfg}f {g}B/{Gdc}d/- | d/e/ {g}A | {GAG}A- A- | A {g}A/4B/4d/ |
{gf}g- g/{a}f/- | f-f | {ag}a-a- | a-a |
{f}g- g/{ag}a/- | a- a | e-e- | e-e |]
[| {gf}g-g | {a}f-f | {ag}a-a- | a-a |
{gf}g-g | {a}f-f | {ag}a-a- | a-a |
{g}g-g | {a}f-f | {ag}a-a | {f}g-g |
{a}g-g | {a}f-f | g a | f-f |
{gf}g-g | {a}f-f | {ag}a-a- | a-a |
{g}a-a- | a-a |]
